Hydrogen/symbolic/actions/checkbox-checked-symbolic.svg

<?xml version="1.0" encoding="UTF-8" standalone="no"?>
<svg
   id="svg6"
   width="16"
   height="16"
   version="1.1"
   viewBox="0 0 16 16"
   sodipodi:docname="checkbox-checked-symbolic.svg"
   inkscape:version="1.4.2 (ebf0e940d0, 2025-05-08)"
   xml:space="preserve"
   xmlns:inkscape="http://www.inkscape.org/namespaces/inkscape"
   xmlns:sodipodi="http://sodipodi.sourceforge.net/DTD/sodipodi-0.dtd"
   xmlns="http://www.w3.org/2000/svg"
   xmlns:svg="http://www.w3.org/2000/svg"><defs
     id="defs1" /><sodipodi:namedview
     id="namedview1"
     pagecolor="#ffffff"
     bordercolor="#111111"
     borderopacity="1"
     inkscape:showpageshadow="0"
     inkscape:pageopacity="0"
     inkscape:pagecheckerboard="1"
     inkscape:deskcolor="#d1d1d1"
     inkscape:zoom="74.3125"
     inkscape:cx="7.9932717"
     inkscape:cy="8"
     inkscape:window-width="2560"
     inkscape:window-height="1368"
     inkscape:window-x="0"
     inkscape:window-y="0"
     inkscape:window-maximized="1"
     inkscape:current-layer="svg6"
     showgrid="true"><inkscape:grid
       id="grid1"
       units="px"
       originx="0"
       originy="0"
       spacingx="1"
       spacingy="1"
       empcolor="#0099e5"
       empopacity="0.30196078"
       color="#0099e5"
       opacity="0.14901961"
       empspacing="5"
       enabled="true"
       visible="true" /></sodipodi:namedview><path
     style="baseline-shift:baseline;display:inline;overflow:visible;opacity:1;vector-effect:none;fill:#241f31;stroke-width:1;stroke-linecap:round;stroke-linejoin:round;enable-background:accumulate;stop-color:#000000;stop-opacity:1"
     d="M 15.003906,3.5000001 A 0.5,0.50528585 0 0 0 14.650391,3.6440854 L 7.4550781,10.785195 4.3515625,7.688346 a 0.5,0.50528585 0 0 0 -0.7070312,0.00395 0.5,0.50528585 0 0 0 0.00391,0.7145058 l 3.4550781,3.4481812 a 0.50005,0.50533638 0 0 0 0.7011719,0 L 15.349609,4.3664864 a 0.5,0.50528585 0 0 0 0.0078,-0.7145059 0.5,0.50528585 0 0 0 -0.353516,-0.1519804 z"
     id="path1" /><path
     id="path2"
     fill="#363636"
     d="M 3,0 C 1.338,0 0,1.338 0,3 v 10 c 0,1.662 1.338,3 3,3 h 10 c 1.662,0 3,-1.338 3,-3 V 3 C 16,1.338 14.662,0 13,0 Z m 0,1 h 10 c 1.108,0 2,0.892 2,2 v 10 c 0,1.108 -0.892,2 -2,2 H 3 C 1.892,15 1,14.108 1,13 V 3 C 1,1.892 1.892,1 3,1 Z"
     style="fill:#241f31" /></svg>

<svg xmlns="http://www.w3.org/2000/svg" xmlns:svg="http://www.w3.org/2000/svg" id="svg6" width="16" height="16" version="1.1" viewBox="0 0 16 16"><path id="path2" fill="#363636" d="m15 3.293-7.5 7.5-3.1816-3.1816c-0.19587-0.19587-0.51116-0.19587-0.70703 0s-0.19587 0.51116 0 0.70703l3.5352 3.5352c0.024484 0.024483 0.050374 0.04609 0.078125 0.064453 0.027751 0.018362 0.057805 0.03268 0.087891 0.044922 0.021237 0.008641 0.04245 0.013939 0.064453 0.019531 0.017015 0.004349 0.03348 0.009195 0.050781 0.011719 0.023767 0.003443 0.048301 0.005859 0.072266 0.005859 0.023653 0 0.046849-0.002505 0.070312-0.005859 0.017951-0.002548 0.035088-0.007209 0.052734-0.011719 0.021775-0.005566 0.043431-0.010976 0.064453-0.019531 0.030085-0.012242 0.060139-0.02656 0.087891-0.044922 0.013704-0.009069 0.026097-0.020689 0.039062-0.03125 0.013117-0.010712 0.026821-0.020962 0.039062-0.033203l7.1465-7.1465v-1.4141z" style="fill:#241f31"/><path id="path4" fill="#363636" d="m3 0c-1.662 0-3 1.338-3 3v10c0 1.662 1.338 3 3 3h10c1.662 0 3-1.338 3-3v-10c0-1.662-1.338-3-3-3h-10zm0 1h10c1.108 0 2 0.892 2 2v10c0 1.108-0.892 2-2 2h-10c-1.108 0-2-0.892-2-2v-10c0-1.108 0.892-2 2-2z" style="fill:#241f31"/></svg>
